X: 23523
T: Liberty For The Sailors
R: jig
M: 6/8
K: Dmajor
|:g|f2e f2e|dcd A2=c|BGB AFA|GEG F2D|
f2e f2e|dcd A2=c|BAG F2D|~E3 D2:|
|:A|DFA AFD|DFA B2A|Ace ecA|Ace f2g|
afd Bdf|ecA ABc|dBG F2D|~E3 D2:|

